X:1
T:Are You Ready for the Judgment?
T:Are You Ready for the Judgment?
T:George Blackburn Holsinger 
T:Laura Emeline Pixley Newell, 1898
T:Public Domain Courtesy of the Cyber Hymnal™
T:Public Domain Courtesy of the Cyber Hymnal™
C:George Blackburn Holsinger
Z:Public Domain
Z:Courtesy of the Cyber Hymnal™
%%score ( 1 2 ) ( 3 4 )
L:1/8
Q:1/4=90
M:4/4
K:Eb
V:1 treble 
V:2 treble 
V:3 bass 
V:4 bass 
V:1
 E>[EF] | [EG]>[EB] [EB]>[Ec] [EB]>[EG] [DF]>E | [Ee]>[Ad] [Ae]>[Af] [Ae]2 [Bd]>[Ac] | %3
w: 1.~Are you|rea- dy for the judg- ment? It is|com- ing by and by, When the|
w: 2.~God pro-|vides a free sal- va- tion, He so|loved the world He gave, Christ His|
w: 3.~Are you|rea- dy for the judg- ment? Soul, no|long- er id- ly wait, When to-|
 [GB]>[GB] [GB]>[GB] [Ge]>[GB] [FA]>[EG] | [DF]>[DF] [DF]>[EG] [DF]2 E>[EF] | %5
w: trump- et sound shall call you To the|bar of God on high, And the|
w: on- ly Son Be- lov- èd, Those a-|stray and lost to save; There’s no|
w: day’s the time ac- cept- ed, Has- ten|ere you be too late— Chris the|
 [EG]>[GB] [GB]>[Ac] [GB]>[EG] [DF]>E | [Ee]>[Af] [Ae]>[Ad] [Ac]2 [Bd]>[Ac] | %7
w: hour no mor- tal know- eth, E’en the|an- gels may not know, Are you|
w: way but His, be- lieve it, And ac-|cept the place He gives; Are you|
w: great a- tone- ment calls you, Cast on|Him your sins and care; Are you|
 [GB]>[GB] [GB]>[Ge] [GB]>[EG] E>[EF] | [EG]>[GB] [FA]>[DF] E2 ||"^Refrain" (3(Bc)d | %10
w: rea- dy for the judg- ment? You shall|reap what- e’er you sow.||
w: rea- dy for the judg- ment? Ev- ery|one who trusts Him lives.|He * is|
w: rea- dy for the judg- ment? You a|crown of life shall wear.||
 (z2 [Ge]>)[Ae] [Ge]>[Ac] x2 | B4 [EG]2 (3(GA)B | (z2 [Ac]>)[Ae] [Ad]>[Ac] x2 | B6 (3:2:1d x4/3 | %14
w: ||||
w: * com- ing, Christ|* * is * com-|* ing, With the|* an-|
w: ||||
 (z2 [Ge]>)[Af] [Ge]>[Ac] x2 | B4 [EG]2 E>F | z2 [EG]>[GB] [FA]>[DF] x2 | E6 |] %18
w: ||||
w: * gels in the|* * air; Are|* you rea- dy||
w: ||||
V:2
 E3/2 x/ | x15/2 E/ | x8 | x8 | x6 E3/2 x/ | x15/2 E/ | x8 | x6 E3/2 x/ | x4 E2 || x2 | %10
 e4- G>G x2 | (G>GG>G) x4 | c4- A3/2 A/ x2 | (G>G G>G) G2 (3:2:2(Bc) x2/3 | e4- G3/2 G/ x2 | %15
 G>G G>G x4 | G4 E3/2 E/ x2 | E6 |] %18
V:3
 [E,G,]>[E,A,] | [E,B,]>[E,G,] [E,G,]>[E,A,] [E,G,]>[E,B,] [F,B,]>[G,B,] | %2
w: ||
 [A,C]>[A,=B,] [A,C]>[A,C] [A,C]2 [A,E]>[A,E] | %3
w: |
 [E,E]>[E,E] [E,E]>[E,E] [E,B,]>[E,B,] [D,B,]>[E,B,] | %4
w: |
 [B,,B,]>[B,,B,] [B,,B,]>[B,,B,] [B,,B,]2 [E,G,]>[E,A,] | %5
w: |
 [E,B,]>[E,E] [E,E]>[E,E] [E,E]>[D,B,] [F,B,]>[G,B,] | [A,C]>[A,C] [A,C]>[A,E] [A,E]2 [A,E]>[A,E] | %7
w: ||
 [E,E]>[E,E] [E,E]>[E,B,] [E,B,]>[E,B,] [G,B,]>[A,C] | B,>B, [B,,B,]>[B,,A,] [E,G,]2 || z2 | %10
w: |He is * * *||
 z2 [E,B,]>[E,B,] [E,B,]>[E,B,] [E,B,]>[E,E] | [E,E]>[E,E] [E,E]>[E,E] [E,B,]2 z2 | %12
w: com- ing, Christ is com- ing|from on high, With the|
 z2 [A,E]>[A,E] [A,E]>[A,C] [A,E]>[A,E] | [E,E]>[E,E] [E,E]>[E,E] [E,E]2 z2 | %14
w: an- gels, with the an- gels|in the air; Are you|
 z2 [E,B,]>[E,B,] [E,B,]>[E,B,] [E,B,]>[E,E] | [E,E]>[E,E] [E,E]>[E,E] [E,B,]2 z2 | %16
w: rea- dy for the jud- gment|of the Lord? Will it|
 z2 [E,B,]>[E,B,] [E,B,]>[E,B,] [B,,B,]>[B,,A,] | [E,G,]6 |] %18
w: fill you with des- pair? *||
V:4
 x2 | x8 | x8 | x8 | x8 | x8 | x8 | x8 | B,>B, x4 || x2 | x8 | x8 | x8 | x8 | x8 | x8 | x8 | x6 |] %18

